(
{PanAz.ar(2,SinOsc.ar(TExpRand.kr(261,440,Dust.kr(2)),SinOsc.ar(TExpRand.kr(20000,22050,Dust.kr(20)))),-0.5)}.play;
{PanAz.ar(2,SinOsc.ar(TExpRand.kr(261,440,Dust.kr(2)),SinOsc.ar(TExpRand.kr(20000,22050,Dust.kr(20)))),0.5)}.play;
)


