

{SinOsc.ar(Demand.ar(Impulse.ar(13),0,SinOsc.ar(22049))*10000,SinOsc.ar(22048))}.play;




{SinOsc.ar(Demand.ar(Impulse.ar(32),0,SinOsc.ar(440))*10000,SinOsc.ar(22048))}.play;







{SinOsc.ar(Demand.ar(Impulse.ar(11),0,SinOsc.ar(11025))*100000,SinOsc.ar(22048))}.play;